alert-remove-outline.svg

<svg fill="currentColor" viewBox="0 0 24 24"><path d="M11 15.5h2v2h-2zm3 3.5v-.4H5.4L12 7.3l4.11 7.14c.51-.44 1.09-.79 1.73-1.03L12 3.3 2 20.6h12.22c-.14-.51-.22-1.04-.22-1.6m-1-8.5h-2v4h2zm9.12 4.96L20 17.59l-2.12-2.13-1.41 1.42L18.59 19l-2.12 2.12 1.41 1.42L20 20.41l2.12 2.13 1.42-1.42L21.41 19l2.13-2.12z"/></svg>

<svg  viewBox="0 0 24 24" fill="currentColor"><path  d="M11 15.5H13V17.5H11V15.5M14 19C14 18.86 14 18.73 14 18.6H5.4L12 7.3L16.11 14.44C16.62 14 17.2 13.65 17.84 13.41L12 3.3L2 20.6H14.22C14.08 20.09 14 19.56 14 19M13 10.5H11V14.5H13V10.5M22.12 15.46L20 17.59L17.88 15.46L16.47 16.88L18.59 19L16.47 21.12L17.88 22.54L20 20.41L22.12 22.54L23.54 21.12L21.41 19L23.54 16.88L22.12 15.46Z"/></svg>
